X: 11110
T: Duke Of Edinburgh, The
R: strathspey
M: 4/4
K: Amixolydian
|(3AAA e>A c>BA>c|e2 a>e f>ec<e|d2 f>d c2 a>c|B>dc>e d>BG>B|
A<Ae>A c>BA>c|e2 a>e f>ec<e|d>ef>d e>ca>f|e>Ad>B A>AA>d||
c<ee>A c<ef>e|c<ea>e f>ec<d|c<ee>A (3cde a>c|B>dc>e d>BG>B|
c<ee>A c<ef>e|c<ea>e f>ec<e|d>ef>d e>ca>f|e>cd>B A>AA>a||

